src/landing/public/images/social/twitter.svg

<svg width="24" height="20" viewBox="0 0 24 20" fill="none" xmlns="http://www.w3.org/2000/svg">
<path d="M24 2.36805C23.1174 2.76905 22.1693 3.03999 21.1726 3.16246C22.1894 2.5382 22.9694 1.54763 23.3373 0.368484C22.386 0.947221 21.3322 1.36773 20.2107 1.59315C19.3123 0.613418 18.0333 0 16.6169 0C13.8983 0 11.6935 2.26076 11.6935 5.0504C11.6935 5.44489 11.7379 5.82855 11.8203 6.1992C7.72659 5.98786 4.10006 3.97746 1.6711 0.923378C1.2483 1.67118 1.0052 2.5382 1.0052 3.46158C1.0052 5.21297 1.8751 6.75951 3.19528 7.66447C2.38774 7.63737 1.62882 7.41086 0.96503 7.03262V7.09765C0.96503 9.54372 2.6615 11.5845 4.915 12.0483C4.50066 12.1632 4.06624 12.2239 3.61807 12.2239C3.30098 12.2239 2.99128 12.1936 2.69109 12.135C3.31789 14.14 5.13591 15.601 7.29111 15.64C5.60522 16.9947 3.48172 17.8021 1.17537 17.8021C0.777943 17.8021 0.385799 17.7783 0 17.7317C2.17951 19.1655 4.76702 20 7.54691 20C16.6053 20 21.5573 12.3074 21.5573 5.63564C21.5573 5.41888 21.552 5.19996 21.5425 4.9832C22.5044 4.27008 23.3394 3.38247 23.9979 2.3713L24 2.36805Z" fill="white"/>
</svg>

<?xml version="1.0" encoding="utf-8"?>
<!-- Generator: Adobe Illustrator 27.0.0, SVG Export Plug-In . SVG Version: 6.00 Build 0)  -->
<svg version="1.1" id="Layer_1" xmlns="http://www.w3.org/2000/svg" xmlns:xlink="http://www.w3.org/1999/xlink" x="0px" y="0px"
	 viewBox="0 0 24 20" style="enable-background:new 0 0 24 20;" xml:space="preserve">
<style type="text/css">
	.st0{fill:#BFA38A;}
</style>
<path class="st0" d="M24,2.4c-0.9,0.4-1.8,0.7-2.8,0.8c1-0.6,1.8-1.6,2.2-2.8c-1,0.6-2,1-3.1,1.2C19.3,0.6,18,0,16.6,0
	c-2.7,0-4.9,2.3-4.9,5.1c0,0.4,0,0.8,0.1,1.1C7.7,6,4.1,4,1.7,0.9C1.2,1.7,1,2.5,1,3.5c0,1.8,0.9,3.3,2.2,4.2C2.4,7.6,1.6,7.4,1,7
	v0.1c0,2.4,1.7,4.5,3.9,5c-0.4,0.1-0.8,0.2-1.3,0.2c-0.3,0-0.6,0-0.9-0.1c0.6,2,2.4,3.5,4.6,3.5c-1.7,1.4-3.8,2.2-6.1,2.2
	c-0.4,0-0.8,0-1.2-0.1C2.2,19.2,4.8,20,7.5,20c9.1,0,14-7.7,14-14.4c0-0.2,0-0.4,0-0.7C22.5,4.3,23.3,3.4,24,2.4L24,2.4z"/>
</svg>
